X: 1
T: Andy de Jarlis   [E]
C: trad.
S: Jerry Holland, who learned it from Mike MacDougall
S: printed page in Concord Slow Scottish Session collection from the Jerry Holland Collection
Z: 2015 John Chambers <jc:trillian.mit.edu>
R: jig
M: 6/8
L: 1/8
K: E
|: "E"EGB EGB | "E"(EG)B "A"{B}c2B | "E"EGB EGB | "D"=DFA {A}B2A \
|  "E"EGB EGB | "E"EGB "A"{B}c2a | "B7"Tg2f Bcd | "E"{d}e3 e2 :|
|: a \
| "E"gbg (efg) | "A"{g}b2a c3 | "F#m"(f2g) (Tf2e) | "B7"dcB (Tc2B) \
| "E"gbg efg | "A"{g}b2a c2a | "B7"(Tg2f) Bcd | "E"{d}e3 e2 :|

%%sep 1 1 500

